!!!OTL@@FUR: J&egrave; jevade la biele stele
!!!OTL@IT: Si &egrave; alzata la stella di Venere
!!!OTL@EN: The beautiful star has arisen
**kern
*clefG2
*k[b-]
*F:
*M2/4
*MM100
*>[A,B,A,C]
=1
*>A
4.cc
8dd
=2
8a
16a
16a
8.dd
16dd
=3
2cc
=4
2b-
=5
4.ee
8dd
=6
8cc
16dd
16ee
8.dd
16cc
=7
4.dd
8cc
=8
2a
=9
4.dd
8cc
=10
8a
16a
16a
8.dd
16dd
=11
2cc
=12
2b-
=13||
*>B
4.ee
8dd
=14
8.cc
16ee
8.dd
16cc
=15
8.b-
16dd
8.cc
16b-
=16
2a
=17:|!
*>C
4.ee
8dd
=18
8.cc
16ee
8.dd
16cc
=19
8.b-
16dd
8.cc
16ee
=20
2ff
==
*-
!!!ARE: Friuli
!!!ENC: Kelly Leistikow
!!!END: 2002/03/07
!!!ref: @{OTL@@FUR}/@{OTL@EN}
